X:1
T:Inisheer waltz
C:Thomas Walsh, fichier abc : Bernard Loffet
L:1/8
Q:220
M:3/4
K:G
|: [B2G,,2] G,A [BG,]d | [B2G,,2] G,A [BG,]d | [E2E,,2] E,B [AD,]B | [D2D,,2] D,B [AD,]G | \
 [B2G,,2] G,A [BG,]d | [B2G,,2] G,A [BG,]d | [G2C,,2] C,B [A/C,/]G/F |1 [G2G,,2] G,E [DG,]G :|2 [G2G,,2] G,A [BG,]d | \
 [e2C,,2] C,f [eC,]d | [B2G,,2] G,A [BG,]d | [eC,,]f [eC,]d [B/C,/]c/d | [e2E,,2] E,A [BE,]d | \
 [e2C,,2] C,f [eC,]d | [B2G,,2] G,A [BG,]d | [G2G,,2] G,B [A/D,/]G/F | [G2G,,2] G,A [BG,]d | \
 [e2C,,2] C,f [eC,]d | [B2G,,2] G,A [BG,]d | [gC,,]f [eC,]d [B/C,/]c/d | [e2E,,2] E,A [BE,]d | \
 [e2C,,2] C,f [eC,]d | [B2G,,2] G,A [BG,]d | [D2D,,2] D,B [A/D,/]G/F | [G2G,,2] G,2 G,2 | \
K:C
W:Created with TablEdit http://www.tabledit.com/ by Bernard Loffet
